;FLAVOR:Marlin
;TIME:6135
;Filament used: 6.04604m
;Layer height: 0.2
;MINX:44.612
;MINY:79.354
;MINZ:0.2
;MAXX:162.609
;MAXY:130.659
;MAXZ:15
;Generated with Cura_SteamEngine 4.11.0
M140 S60
M105
M190 S60
M104 S200
M105
M109 S200
M82 ;absolute extrusion mode
G21 ;metric values
G90 ;absolute positioning
M82 ;set extruder to absolute mode
M107 ;start with the fan off
G28 X0 Y0 ;move X/Y to min endstops
G28 Z0 ;move Z to min endstops
G1 Z15.0 F100 ;move the platform down 15mm
G92 E0 ;zero the extruded length
G1 F200 E3 ;extrude 3mm of feed stock
G92 E0 ;zero the extruded length again
G1 F100
G0 Y20 F100
M117 Printing...
G5
G92 E0
G92 E0
G1 F2400 E-6
;LAYER_COUNT:75
;LAYER:0
M107
M204 S3000
M205 X10 Y10
G1 F600 Z0.275
G0 F3000 X56.669 Y90.51 Z0.275
M204 S1800
M205 X8 Y8
;TYPE:SKIRT
G1 F600 Z0.2
G1 F2400 E0
G1 X57.085 Y90.274 E0.02227
G1 X57.925 Y89.837 E0.06636
G1 X69.138 Y84.229 E0.65015
G1 X71.561 Y82.976 E0.77716
G1 X73.844 Y81.71 E0.89872
G1 X75.778 Y80.572 E1.00321
G1 X76.179 Y80.353 E1.02448
G1 X76.902 Y80.025 E1.06145
G1 X77.281 Y79.881 E1.08033
G1 X77.963 Y79.665 E1.11364
G1 X78.766 Y79.513 E1.1517
G1 X79.016 Y79.482 E1.16343
G1 X79.775 Y79.433 E1.19884
G1 X80.48 Y79.448 E1.23168
G1 X81.419 Y79.514 E1.27551
G1 X84.151 Y79.669 E1.40293
G1 X86.767 Y79.743 E1.52479
G1 X88.148 Y79.753 E1.5891
G1 X136.952 Y79.752 E3.86161
G1 X142.609 Y79.729 E4.12503
G1 X145.238 Y79.692 E4.24746
G1 X147.112 Y79.607 E4.33481
G1 X147.389 Y79.598 E4.34772
G1 X150.032 Y79.47 E4.47093
G1 X151.53 Y79.362 E4.54086
G1 X151.672 Y79.354 E4.54749
G1 X152.387 Y79.354 E4.58078
G1 X152.801 Y79.39 E4.60013
G1 X153.652 Y79.493 E4.64005
G1 X153.863 Y79.522 E4.64996
G1 X154.418 Y79.608 E4.67611
G1 X155.118 Y79.757 E4.70944
G1 X155.849 Y79.999 E4.74529
G1 X156.705 Y80.348 E4.78834
G1 X157.347 Y80.661 E4.8216
G1 X157.843 Y80.965 E4.84869
G1 X158.283 Y81.259 E4.87333
G1 X158.421 Y81.355 E4.88115
G1 X158.864 Y81.671 E4.90649
G1 X159.422 Y82.118 E4.93978
G1 X159.889 Y82.573 E4.97014
G1 X160.303 Y83.032 E4.99893
G1 X160.703 Y83.543 E5.02914
G1 X161.079 Y84.06 E5.05891
G1 X161.466 Y84.662 E5.09224
G1 X161.783 Y85.303 E5.12553
G1 X162.026 Y85.976 E5.15885
G1 X162.183 Y86.618 E5.18963
G1 X162.324 Y87.468 E5.22975
G1 X162.476 Y88.518 E5.27915
G1 X162.56 Y89.184 E5.31041
G1 X162.609 Y89.898 E5.34373
G1 X162.558 Y90.795 E5.38557
G1 X162.351 Y92.424 E5.46203
G1 X162.14 Y94.015 E5.53676
G1 X161.868 Y96.635 E5.65942
G1 X161.668 Y99.282 E5.78302
G1 X161.545 Y101.915 E5.90576
G1 X161.496 Y104.538 E6.02792
G1 X161.521 Y107.236 E6.15355
G1 X161.621 Y109.847 E6.27522
G1 X161.798 Y112.515 E6.39973
G1 X162.045 Y115.118 E6.52148
G1 X162.378 Y117.826 E6.64853
G1 X162.476 Y118.518 E6.68107
G1 X162.56 Y119.184 E6.71233
G1 X162.609 Y119.898 E6.74565
G1 X162.558 Y120.798 E6.78763
G1 X162.442 Y121.7 E6.82997
G1 X162.334 Y122.438 E6.8647
G1 X162.213 Y123.196 E6.90045
G1 X162.061 Y123.895 E6.93376
G1 X161.832 Y124.572 E6.96703
G1 X161.529 Y125.22 E7.00034
G1 X161.138 Y125.854 E7.03503
G1 X160.787 Y126.345 E7.06313
G1 X160.424 Y126.817 E7.09086
G1 X159.925 Y127.391 E7.12627
G1 X159.743 Y127.577 E7.13839
G1 X158.94 Y128.272 E7.18784
G1 X158.46 Y128.616 E7.21534
G1 X157.887 Y128.999 E7.24743
G1 X157.103 Y129.446 E7.28946
G1 X156.594 Y129.684 E7.31562
G1 X156.065 Y129.911 E7.34243
G1 X155.51 Y130.12 E7.37004
G1 X155.377 Y130.163 E7.37655
G1 X154.517 Y130.376 E7.4178
G1 X153.952 Y130.468 E7.44446
G1 X153.551 Y130.524 E7.46331
G1 X152.862 Y130.61 E7.49564
G1 X152.148 Y130.659 E7.52897
G1 X151.679 Y130.647 E7.55082
G1 X149.2 Y130.496 E7.66646
G1 X146.704 Y130.376 E7.78282
G1 X144.069 Y130.286 E7.90559
G1 X142.155 Y130.268 E7.99472
G1 X136.609 Y130.248 E8.25296
G1 X88.05 Y130.247 E10.51407
G1 X85.387 Y130.285 E10.63809
G1 X82.756 Y130.396 E10.76071
G1 X80.557 Y130.549 E10.86335
G1 X79.898 Y130.567 E10.89405
G1 X79.149 Y130.533 E10.92896
G1 X78.919 Y130.509 E10.93973
G1 X78.213 Y130.396 E10.97302
G1 X77.559 Y130.216 E11.0046
G1 X77.364 Y130.151 E11.01418
G1 X76.688 Y129.882 E11.04805
G1 X76.314 Y129.708 E11.06726
G1 X75.784 Y129.43 E11.09513
G1 X74.905 Y128.915 E11.14257
G1 X74.786 Y128.842 E11.14907
G1 X72.507 Y127.543 E11.27121
G1 X69.138 Y125.771 E11.44847
G1 X57.795 Y120.094 E12.0391
G1 X57.182 Y119.776 E12.07126
G1 X56.566 Y119.412 E12.10457
G1 X56.036 Y119.021 E12.13524
G1 X55.475 Y118.538 E12.16971
G1 X54.793 Y117.876 E12.21397
G1 X52.957 Y116.039 E12.33491
G1 X51.033 Y114.168 E12.45987
G1 X49.061 Y112.355 E12.58461
G1 X47.923 Y111.355 E12.65515
G1 X47.375 Y110.883 E12.68883
G1 X46.908 Y110.446 E12.71861
G1 X46.745 Y110.279 E12.72947
G1 X46.237 Y109.692 E12.76562
G1 X46.063 Y109.464 E12.77898
G1 X45.662 Y108.872 E12.81227
G1 X45.329 Y108.239 E12.84558
G1 X45.115 Y107.707 E12.87228
G1 X45.028 Y107.46 E12.88447
G1 X44.788 Y106.589 E12.92654
G1 X44.737 Y106.334 E12.93865
G1 X44.636 Y105.626 E12.97195
G1 X44.612 Y105.105 E12.99624
G1 X44.638 Y104.39 E13.02955
G1 X44.725 Y103.773 E13.05857
G1 X44.817 Y103.293 E13.08132
G1 X44.991 Y102.599 E13.11464
G1 X45.241 Y101.929 E13.14794
G1 X45.564 Y101.291 E13.18124
G1 X45.863 Y100.824 E13.20706
G1 X46.046 Y100.563 E13.2219
G1 X46.603 Y99.875 E13.26312
G1 X47.007 Y99.45 E13.29042
G1 X47.336 Y99.143 E13.31138
G1 X48.341 Y98.266 E13.37349
G1 X50.29 Y96.517 E13.49542
G1 X53.073 Y93.842 E13.67517
G1 X55.042 Y91.873 E13.80483
G1 X55.518 Y91.41 E13.83575
G1 X56.022 Y90.968 E13.86697
G1 X56.083 Y90.92 E13.87058
G1 X56.669 Y90.51 E13.90388
M204 S3000
M205 X10 Y10
G0 F3000 X56.99 Y90.97
M204 S1800
M205 X8 Y8
G1 F2400 X57.344 Y90.77 E13.92281
G1 X58.176 Y90.338 E13.96647
G1 X69.368 Y84.741 E14.54915
G1 X71.812 Y83.476 E14.67729
G1 X74.147 Y82.182 E14.8016
G1 X76.062 Y81.055 E14.90506
G1 X76.441 Y80.848 E14.92517
G1 X77.101 Y80.549 E14.95891
G1 X77.48 Y80.405 E14.97779
G1 X78.132 Y80.2 E15.00961
G1 X78.835 Y80.068 E15.04292
G1 X79.085 Y80.037 E15.05465
G1 X79.778 Y79.993 E15.08699
G1 X80.44 Y80.007 E15.11782
G1 X81.361 Y80.072 E15.16081
G1 X84.103 Y80.227 E15.28869
G1 X86.794 Y80.303 E15.41405
G1 X88.144 Y80.313 E15.47691
G1 X136.954 Y80.312 E17.74971
G1 X142.611 Y80.289 E18.01312
G1 X145.24 Y80.252 E18.13555
G1 X147.13 Y80.167 E18.22365
G1 X147.375 Y80.159 E18.23506
G1 X150.056 Y80.029 E18.36005
G1 X151.562 Y79.921 E18.43035
G1 X151.704 Y79.913 E18.43698
G1 X152.387 Y79.915 E18.46878
G1 X152.734 Y79.946 E18.485
G1 X153.585 Y80.049 E18.52492
G1 X153.777 Y80.076 E18.53395
G1 X154.332 Y80.162 E18.5601
G1 X155.285 Y80.393 E18.60576
G1 X155.921 Y80.627 E18.63731
G1 X156.487 Y80.864 E18.66589
G1 X157.36 Y81.321 E18.71177
G1 X157.969 Y81.723 E18.74575
G1 X158.538 Y82.127 E18.77824
G1 X159.286 Y82.762 E18.82393
G1 X159.492 Y82.969 E18.83753
G1 X159.87 Y83.386 E18.86374
G1 X160.258 Y83.883 E18.8931
G1 X160.626 Y84.389 E18.92223
G1 X160.994 Y84.964 E18.95402
G1 X161.291 Y85.579 E18.98582
G1 X161.516 Y86.225 E19.01767
G1 X161.633 Y86.723 E19.04149
G1 X161.775 Y87.585 E19.08217
G1 X161.92 Y88.588 E19.12936
G1 X162.004 Y89.254 E19.16062
G1 X162.05 Y89.936 E19.19245
G1 X162.003 Y90.725 E19.22925
G1 X161.795 Y92.35 E19.30554
G1 X161.588 Y93.914 E19.379
G1 X161.308 Y96.609 E19.50516
G1 X161.111 Y99.216 E19.6269
G1 X160.985 Y101.913 E19.75262
G1 X160.936 Y104.538 E19.87488
G1 X160.961 Y107.227 E20.00009
G1 X161.064 Y109.906 E20.12493
G1 X161.238 Y112.535 E20.24762
G1 X161.491 Y115.206 E20.37255
G1 X161.817 Y117.854 E20.49678
G1 X161.92 Y118.588 E20.53129
G1 X162.004 Y119.254 E20.56255
G1 X162.05 Y119.936 E20.59438
G1 X162.003 Y120.727 E20.63127
G1 X161.888 Y121.619 E20.67315
G1 X161.781 Y122.35 E20.70755
G1 X161.66 Y123.108 E20.7433
G1 X161.513 Y123.775 E20.7751
G1 X161.289 Y124.42 E20.80689
G1 X160.991 Y125.035 E20.83872
G1 X160.679 Y125.534 E20.86612
G1 X160.343 Y126.003 E20.89298
G1 X159.98 Y126.475 E20.92071
G1 X159.525 Y126.999 E20.95303
G1 X159.343 Y127.185 E20.96514
G1 X158.61 Y127.819 E21.01027
G1 X158.148 Y128.15 E21.03673
G1 X157.575 Y128.533 E21.06883
G1 X156.86 Y128.941 E21.10716
G1 X156.373 Y129.17 E21.13222
G1 X155.844 Y129.397 E21.15902
G1 X155.338 Y129.587 E21.18419
G1 X155.205 Y129.63 E21.1907
G1 X154.42 Y129.825 E21.22836
G1 X153.869 Y129.915 E21.25436
G1 X153.481 Y129.968 E21.27259
G1 X152.792 Y130.054 E21.30493
G1 X152.111 Y130.099 E21.33671
G1 X151.713 Y130.088 E21.35525
G1 X149.183 Y129.934 E21.47327
G1 X146.813 Y129.82 E21.58376
G1 X144.052 Y129.726 E21.71239
G1 X142.161 Y129.708 E21.80045
G1 X136.611 Y129.688 E22.05888
G1 X88.042 Y129.687 E24.32046
G1 X85.392 Y129.724 E24.44387
G1 X82.692 Y129.839 E24.5697
G1 X80.518 Y129.99 E24.67118
G1 X79.891 Y130.007 E24.70038
G1 X79.207 Y129.976 E24.73227
G1 X78.977 Y129.952 E24.74304
G1 X78.303 Y129.842 E24.77483
G1 X77.736 Y129.684 E24.80224
G1 X77.541 Y129.619 E24.81181
G1 X76.925 Y129.374 E24.84268
G1 X76.551 Y129.2 E24.86189
G1 X76.067 Y128.947 E24.88732
G1 X75.197 Y128.437 E24.93428
G1 X75.092 Y128.373 E24.94
G1 X72.771 Y127.049 E25.06443
G1 X69.36 Y125.255 E25.24389
G1 X58.053 Y119.597 E25.83263
G1 X57.44 Y119.279 E25.86478
G1 X56.577 Y118.731 E25.91238
G1 X56.376 Y118.577 E25.92418
G1 X55.865 Y118.136 E25.95561
G1 X55.189 Y117.48 E25.99947
G1 X53.348 Y115.638 E26.12073
G1 X51.406 Y113.75 E26.24685
G1 X49.462 Y111.963 E26.36981
G1 X48.245 Y110.893 E26.44526
G1 X47.741 Y110.459 E26.47623
G1 X47.309 Y110.055 E26.50378
G1 X47.146 Y109.888 E26.51464
G1 X46.682 Y109.352 E26.54765
G1 X46.508 Y109.124 E26.56101
G1 X46.126 Y108.558 E26.5928
G1 X45.813 Y107.95 E26.62465
G1 X45.556 Y107.274 E26.65832
G1 X45.337 Y106.479 E26.69672
G1 X45.286 Y106.224 E26.70883
G1 X45.192 Y105.548 E26.74061
G1 X45.172 Y105.094 E26.76177
G1 X45.199 Y104.411 E26.7936
G1 X45.275 Y103.879 E26.81862
G1 X45.367 Y103.399 E26.84138
G1 X45.535 Y102.736 E26.87323
G1 X45.779 Y102.098 E26.90503
G1 X46.096 Y101.493 E26.93684
G1 X46.504 Y100.884 E26.97097
G1 X47.013 Y100.256 E27.00861
G1 X47.399 Y99.85 E27.0347
G1 X47.704 Y99.565 E27.05414
G1 X48.709 Y98.688 E27.11624
G1 X50.655 Y96.941 E27.23802
G1 X53.487 Y94.22 E27.42089
G1 X55.432 Y92.275 E27.54897
G1 X55.908 Y91.812 E27.57989
G1 X56.369 Y91.409 E27.6084
G1 X56.43 Y91.361 E27.61202
G1 X56.99 Y90.97 E27.64382
M204 S3000
M205 X10 Y10
G0 F3000 X57.31 Y91.431
M204 S1800
M205 X8 Y8
G1 F2400 X57.602 Y91.267 E27.65942
G1 X58.426 Y90.839 E27.70265
G1 X69.653 Y85.224 E28.28716
G1 X72.063 Y83.977 E28.41352
G1 X74.408 Y82.678 E28.53834
G1 X76.346 Y81.537 E28.64306
G1 X76.703 Y81.342 E28.66201
G1 X77.3 Y81.072 E28.69252
G1 X77.679 Y80.928 E28.71139
G1 X78.299 Y80.735 E28.74163
G1 X78.904 Y80.624 E28.77027
G1 X79.154 Y80.593 E28.782
G1 X79.78 Y80.553 E28.81121
G1 X80.401 Y80.565 E28.84013
G1 X81.347 Y80.632 E28.88429
G1 X84.092 Y80.787 E29.01231
G1 X86.774 Y80.863 E29.13725
G1 X88.14 Y80.873 E29.20086
G1 X136.957 Y80.872 E31.47398
G1 X142.614 Y80.849 E31.7374
G1 X145.24 Y80.813 E31.85969
G1 X147.149 Y80.727 E31.94867
G1 X147.356 Y80.72 E31.95831
G1 X150.126 Y80.586 E32.08745
G1 X151.593 Y80.48 E32.15593
G1 X151.735 Y80.472 E32.16256
G1 X152.666 Y80.502 E32.20593
G1 X153.517 Y80.605 E32.24585
G1 X153.692 Y80.629 E32.25407
G1 X154.247 Y80.715 E32.28022
G1 X155.108 Y80.924 E32.32148
G1 X155.718 Y81.149 E32.35175
G1 X156.27 Y81.38 E32.37962
G1 X157.059 Y81.793 E32.42108
G1 X157.656 Y82.187 E32.45439
G1 X158.213 Y82.583 E32.48621
G1 X158.89 Y83.157 E32.52754
G1 X159.096 Y83.364 E32.54114
G1 X159.437 Y83.741 E32.56481
G1 X159.812 Y84.223 E32.59325
G1 X160.172 Y84.717 E32.62171
G1 X160.52 Y85.266 E32.65198
G1 X160.798 Y85.853 E32.68222
G1 X161.002 Y86.47 E32.71248
G1 X161.118 Y87.011 E32.73825
G1 X161.216 Y87.636 E32.7677
G1 X161.351 Y88.558 E32.81109
G1 X161.448 Y89.324 E32.84705
G1 X161.49 Y89.973 E32.87733
G1 X161.447 Y90.654 E32.9091
G1 X161.24 Y92.277 E32.98529
G1 X161.031 Y93.857 E33.0595
G1 X160.752 Y96.544 E33.18529
G1 X160.55 Y99.217 E33.31011
G1 X160.426 Y101.877 E33.43411
G1 X160.376 Y104.551 E33.55864
G1 X160.401 Y107.253 E33.68447
G1 X160.504 Y109.929 E33.80916
G1 X160.68 Y112.59 E33.93334
G1 X160.933 Y115.253 E34.0579
G1 X161.264 Y117.945 E34.1842
G1 X161.364 Y118.658 E34.21772
G1 X161.448 Y119.324 E34.24898
G1 X161.49 Y119.973 E34.27926
G1 X161.447 Y120.656 E34.31113
G1 X161.333 Y121.539 E34.35258
G1 X161.228 Y122.261 E34.38656
G1 X161.107 Y123.019 E34.4223
G1 X160.965 Y123.653 E34.45255
G1 X160.747 Y124.265 E34.4828
G1 X160.455 Y124.845 E34.51304
G1 X160.041 Y125.469 E34.54791
G1 X159.899 Y125.662 E34.55907
G1 X159.536 Y126.134 E34.58679
G1 X159.125 Y126.608 E34.61601
G1 X158.943 Y126.794 E34.62813
G1 X158.28 Y127.367 E34.66893
G1 X157.837 Y127.685 E34.69432
G1 X157.264 Y128.068 E34.72641
G1 X156.618 Y128.437 E34.76106
G1 X156.152 Y128.655 E34.78501
G1 X155.623 Y128.882 E34.81182
G1 X155.032 Y129.097 E34.8411
G1 X154.323 Y129.273 E34.87512
G1 X153.785 Y129.361 E34.9005
G1 X153.412 Y129.412 E34.91803
G1 X152.723 Y129.498 E34.95036
G1 X152.075 Y129.539 E34.9806
G1 X151.747 Y129.529 E34.99588
G1 X149.243 Y129.376 E35.11269
G1 X146.793 Y129.259 E35.2269
G1 X144.077 Y129.166 E35.35345
G1 X142.166 Y129.148 E35.44243
G1 X136.613 Y129.128 E35.70101
G1 X88.034 Y129.127 E37.96305
G1 X85.36 Y129.165 E38.08757
G1 X82.669 Y129.279 E38.21299
G1 X80.48 Y129.431 E38.31516
G1 X79.883 Y129.448 E38.34297
G1 X79.265 Y129.419 E38.37178
G1 X79.035 Y129.395 E38.38255
G1 X78.394 Y129.288 E38.41281
G1 X77.718 Y129.088 E38.44564
G1 X77.161 Y128.866 E38.47356
G1 X76.35 Y128.463 E38.51573
G1 X75.489 Y127.959 E38.56218
G1 X75.358 Y127.879 E38.56933
G1 X73.06 Y126.568 E38.69252
G1 X69.601 Y124.749 E38.8745
G1 X58.311 Y119.1 E39.46235
G1 X57.698 Y118.782 E39.4945
G1 X56.918 Y118.286 E39.53754
G1 X56.717 Y118.132 E39.54933
G1 X56.254 Y117.733 E39.57779
G1 X55.585 Y117.085 E39.62116
G1 X53.721 Y115.22 E39.74394
G1 X51.798 Y113.35 E39.86884
G1 X49.814 Y111.526 E39.99434
G1 X48.654 Y110.507 E40.06623
G1 X48.106 Y110.035 E40.09991
G1 X47.709 Y109.664 E40.12521
G1 X47.546 Y109.497 E40.13608
G1 X47.128 Y109.012 E40.16589
G1 X46.954 Y108.784 E40.17925
G1 X46.592 Y108.245 E40.20948
G1 X46.299 Y107.665 E40.23974
G1 X46.084 Y107.088 E40.26841
G1 X45.887 Y106.369 E40.30312
G1 X45.836 Y106.114 E40.31523
G1 X45.734 Y105.184 E40.3588
G1 X45.732 Y105.083 E40.3635
G1 X45.759 Y104.433 E40.39379
G1 X45.917 Y103.504 E40.43767
G1 X46.079 Y102.875 E40.46792
G1 X46.316 Y102.27 E40.49817
G1 X46.78 Y101.467 E40.54136
G1 X46.963 Y101.206 E40.5562
G1 X47.423 Y100.638 E40.59023
G1 X47.792 Y100.25 E40.61517
G1 X48.072 Y99.987 E40.63305
G1 X49.058 Y99.126 E40.69401
G1 X51.052 Y97.337 E40.81875
G1 X53.875 Y94.624 E41.00106
G1 X55.823 Y92.676 E41.12934
G1 X56.299 Y92.213 E41.16026
G1 X56.715 Y91.849 E41.186
G1 X56.776 Y91.801 E41.18962
G1 X57.31 Y91.431 E41.21987
M204 S3000
M205 X10 Y10
G0 F3000 X60.187 Y96.174
M204 S1800
M205 X8 Y8
;TYPE:SUPPORT
G1 F1500 X79.154 Y86.691 E42.20728
G1 X79.342 Y86.226 E42.23064
G1 X79.603 Y86.128 E42.24362
G1 X79.86 Y86.102 E42.25565
G1 X80.254 Y86.433 E42.27961
G1 X136.737 Y86.433 E44.9097
G1 X142.293 Y86.41 E45.16841
G1 X148.146 Y86.42 E45.44095
G1 X148.442 Y87.096 E45.47531
G1 X148.107 Y87.524 E45.50062
G1 X148.062 Y87.609 E45.5051
G1 X147.632 Y88.719 E45.56053
G1 X147.605 Y88.823 E45.56553
G1 X147.462 Y89.943 E45.61811
G1 X147.462 Y90.057 E45.62341
G1 X147.605 Y91.177 E45.67599
G1 X147.632 Y91.281 E45.68099
G1 X148.063 Y92.393 E45.73652
G1 X148.24 Y92.666 E45.75168
G1 X148.443 Y92.905 E45.76628
G1 X148.108 Y93.67 E45.80516
G1 X147.903 Y93.581 E45.81557
G1 X143.108 Y93.589 E46.03885
G1 X138.218 Y93.568 E46.26655
G1 X78.999 Y93.568 E49.02403
G1 X63.043 Y101.543 E49.85464
G1 X59.283 Y103.454 E50.05104
G1 X58.992 Y103.928 E50.07694
G1 X58.992 Y106.073 E50.17682
G1 X59.283 Y106.547 E50.20272
G1 X63.044 Y108.456 E50.39911
G1 X78.999 Y116.432 E51.22971
G1 X138.23 Y116.433 E53.98775
G1 X142.994 Y116.411 E54.20958
G1 X148.159 Y116.403 E54.45009
G1 X148.459 Y117.075 E54.48436
G1 X148.107 Y117.524 E54.51092
G1 X148.062 Y117.609 E54.5154
G1 X147.632 Y118.719 E54.57083
G1 X147.605 Y118.823 E54.57583
G1 X147.462 Y119.943 E54.62841
G1 X147.462 Y120.057 E54.63372
G1 X147.605 Y121.177 E54.68629
G1 X147.632 Y121.281 E54.69129
G1 X148.063 Y122.393 E54.74683
G1 X148.24 Y122.666 E54.76198
