;FLAVOR:Marlin
;TIME:945
;Filament used: 0.854014m
;Layer height: 0.2
;MINX:74.339
;MINY:89.825
;MINZ:0.2
;MAXX:134.442
;MAXY:120.177
;MAXZ:6.8
;Generated with Cura_SteamEngine 4.11.0
M140 S60
M105
M190 S60
M104 S200
M105
M109 S200
M82 ;absolute extrusion mode
G21 ;metric values
G90 ;absolute positioning
M82 ;set extruder to absolute mode
M107 ;start with the fan off
G28 X0 Y0 ;move X/Y to min endstops
G28 Z0 ;move Z to min endstops
G1 Z15.0 F100 ;move the platform down 15mm
G92 E0 ;zero the extruded length
G1 F200 E3 ;extrude 3mm of feed stock
G92 E0 ;zero the extruded length again
G1 F100
G0 Y20 F100
M117 Printing...
G5
G92 E0
G92 E0
G1 F2400 E-6
;LAYER_COUNT:34
;LAYER:0
M107
M204 S3000
M205 X10 Y10
G1 F600 Z0.275
G0 F3000 X80.822 Y95.713 Z0.275
M204 S1800
M205 X8 Y8
;TYPE:SKIRT
G1 F600 Z0.2
G1 F2400 E0
G1 X80.846 Y95.695 E0.0014
G1 X81.673 Y95.168 E0.04706
G1 X82.152 Y94.916 E0.07226
G1 X90.055 Y90.965 E0.48368
G1 X90.634 Y90.686 E0.51361
G1 X91.294 Y90.412 E0.54689
G1 X91.848 Y90.246 E0.57382
G1 X92.098 Y90.183 E0.58582
G1 X92.8 Y90.047 E0.61912
G1 X93.561 Y89.99 E0.65465
G1 X94.425 Y89.977 E0.69489
G1 X119.037 Y89.977 E1.84093
G1 X121.689 Y89.939 E1.96443
G1 X124.18 Y89.832 E2.08053
G1 X124.431 Y89.825 E2.09222
G1 X125.146 Y89.846 E2.12553
G1 X125.504 Y89.886 E2.1423
G1 X126.548 Y90.035 E2.19141
G1 X127.579 Y90.206 E2.24007
G1 X128.097 Y90.309 E2.26466
G1 X128.788 Y90.495 E2.29798
G1 X129.401 Y90.732 E2.32859
G1 X129.982 Y91.003 E2.35844
G1 X130.28 Y91.157 E2.37406
G1 X130.896 Y91.521 E2.40737
G1 X131.468 Y91.951 E2.4407
G1 X131.897 Y92.343 E2.46775
G1 X132.5 Y92.981 E2.50863
G1 X132.95 Y93.537 E2.54194
G1 X133.493 Y94.439 E2.59096
G1 X133.785 Y95.058 E2.62283
G1 X133.888 Y95.306 E2.63534
G1 X134.125 Y95.981 E2.66865
G1 X134.26 Y96.541 E2.69547
G1 X134.354 Y97.104 E2.72205
G1 X134.396 Y97.439 E2.73777
G1 X134.442 Y98.473 E2.78597
G1 X134.424 Y98.922 E2.80689
G1 X134.305 Y101.013 E2.90441
G1 X134.23 Y103.618 E3.02576
G1 X134.228 Y106.262 E3.14888
G1 X134.304 Y108.965 E3.27479
G1 X134.436 Y111.385 E3.38764
G1 X134.421 Y112.295 E3.43002
G1 X134.357 Y112.879 E3.45738
G1 X134.312 Y113.175 E3.47132
G1 X134.165 Y113.875 E3.50463
G1 X134.014 Y114.36 E3.52828
G1 X133.787 Y114.917 E3.55629
G1 X133.548 Y115.427 E3.58251
G1 X133.438 Y115.647 E3.59397
G1 X133.083 Y116.268 E3.62727
G1 X132.661 Y116.845 E3.66056
G1 X132.285 Y117.264 E3.68678
G1 X131.843 Y117.697 E3.71559
G1 X131.521 Y117.986 E3.73573
G1 X130.963 Y118.433 E3.76903
G1 X130.358 Y118.815 E3.80234
G1 X129.656 Y119.159 E3.83874
G1 X129.196 Y119.354 E3.86201
G1 X128.264 Y119.654 E3.9076
G1 X127.578 Y119.793 E3.94019
G1 X127.409 Y119.822 E3.94818
G1 X126.221 Y120.005 E4.00415
G1 X125.624 Y120.101 E4.0323
G1 X124.913 Y120.175 E4.06559
G1 X124.356 Y120.177 E4.09153
G1 X123.266 Y120.133 E4.14232
G1 X122.591 Y120.097 E4.1738
G1 X118.816 Y120.023 E4.34961
G1 X94.275 Y120.022 E5.49234
G1 X93.556 Y120.011 E5.52583
G1 X92.843 Y119.96 E5.55911
G1 X92.224 Y119.85 E5.58839
G1 X92.019 Y119.803 E5.59818
G1 X91.332 Y119.605 E5.63147
G1 X90.667 Y119.329 E5.665
G1 X89.983 Y118.998 E5.70038
G1 X82.407 Y115.208 E6.09483
G1 X81.805 Y114.896 E6.1264
G1 X81.189 Y114.532 E6.15972
G1 X80.744 Y114.205 E6.18544
G1 X80.511 Y114.018 E6.19935
G1 X80.047 Y113.607 E6.22821
G1 X79.697 Y113.265 E6.251
G1 X76.736 Y110.3 E6.44611
G1 X76.25 Y109.798 E6.47865
G1 X75.782 Y109.257 E6.51196
G1 X75.377 Y108.667 E6.54528
G1 X74.93 Y107.783 E6.59141
G1 X74.811 Y107.494 E6.60596
G1 X74.576 Y106.818 E6.63929
G1 X74.418 Y106.121 E6.67256
G1 X74.339 Y105.41 E6.70588
G1 X74.339 Y104.695 E6.73917
G1 X74.421 Y103.939 E6.77458
G1 X74.552 Y103.236 E6.80788
G1 X74.762 Y102.552 E6.84119
G1 X75.046 Y101.896 E6.87448
G1 X75.402 Y101.275 E6.90781
G1 X75.878 Y100.635 E6.94495
G1 X76.245 Y100.22 E6.97075
G1 X77.108 Y99.322 E7.02874
G1 X79.662 Y96.768 E7.19693
G1 X80.201 Y96.244 E7.23193
G1 X80.822 Y95.713 E7.26998
M204 S3000
M205 X10 Y10
G0 F3000 X81.158 Y96.161
M204 S1800
M205 X8 Y8
G1 F2400 X81.182 Y96.143 E7.27137
G1 X81.937 Y95.662 E7.31306
G1 X82.403 Y95.416 E7.33759
G1 X90.298 Y91.47 E7.74858
G1 X90.877 Y91.191 E7.77851
G1 X91.509 Y90.931 E7.81033
G1 X92.235 Y90.726 E7.84545
G1 X92.906 Y90.598 E7.87726
G1 X93.57 Y90.55 E7.90826
G1 X94.425 Y90.537 E7.94808
G1 X119.045 Y90.537 E9.09449
G1 X121.688 Y90.5 E9.21757
G1 X124.195 Y90.392 E9.33442
G1 X124.446 Y90.385 E9.34611
G1 X125.426 Y90.44 E9.39181
G1 X126.318 Y90.566 E9.43376
G1 X127.488 Y90.759 E9.48898
G1 X127.982 Y90.857 E9.51243
G1 X128.642 Y91.036 E9.54427
G1 X129.172 Y91.243 E9.57076
G1 X129.725 Y91.501 E9.59918
G1 X130.023 Y91.655 E9.6148
G1 X130.611 Y92.003 E9.64661
G1 X131.367 Y92.612 E9.69182
G1 X131.812 Y93.057 E9.72112
G1 X132.085 Y93.358 E9.74004
G1 X132.513 Y93.89 E9.77184
G1 X132.991 Y94.687 E9.81511
G1 X133.267 Y95.273 E9.84527
G1 X133.37 Y95.521 E9.85778
G1 X133.595 Y96.166 E9.88959
G1 X133.737 Y96.786 E9.9192
G1 X133.841 Y97.509 E9.95322
G1 X133.882 Y98.452 E9.99717
G1 X133.865 Y98.89 E10.01758
G1 X133.747 Y100.965 E10.11435
G1 X133.67 Y103.638 E10.23887
G1 X133.668 Y106.278 E10.3618
G1 X133.743 Y108.975 E10.48743
G1 X133.877 Y111.416 E10.60127
G1 X133.864 Y112.246 E10.63992
G1 X133.804 Y112.795 E10.66564
G1 X133.759 Y113.091 E10.67958
G1 X133.617 Y113.759 E10.71138
G1 X133.486 Y114.174 E10.73164
G1 X133.279 Y114.682 E10.75719
G1 X133.047 Y115.177 E10.78264
G1 X132.937 Y115.397 E10.79409
G1 X132.597 Y115.989 E10.82588
G1 X132.189 Y116.537 E10.8577
G1 X131.739 Y117.021 E10.88847
G1 X131.147 Y117.569 E10.92603
G1 X130.612 Y117.995 E10.95788
G1 X130.032 Y118.356 E10.98969
G1 X129.422 Y118.651 E11.02124
G1 X128.984 Y118.836 E11.04338
G1 X128.134 Y119.109 E11.08495
G1 X127.477 Y119.242 E11.11616
G1 X127.323 Y119.268 E11.12344
G1 X126.135 Y119.452 E11.17941
G1 X125.535 Y119.548 E11.20771
G1 X124.856 Y119.617 E11.23949
G1 X124.379 Y119.617 E11.2617
G1 X123.295 Y119.574 E11.31221
G1 X122.601 Y119.537 E11.34458
G1 X118.827 Y119.463 E11.52034
G1 X94.284 Y119.462 E12.66317
G1 X93.565 Y119.451 E12.69665
G1 X92.883 Y119.401 E12.72849
G1 X92.349 Y119.304 E12.75377
G1 X92.144 Y119.257 E12.76356
G1 X91.488 Y119.066 E12.79537
G1 X90.911 Y118.825 E12.82449
G1 X90.234 Y118.497 E12.85952
G1 X82.665 Y114.711 E13.2536
G1 X82.063 Y114.399 E13.28517
G1 X81.476 Y114.05 E13.31697
G1 X80.862 Y113.582 E13.35292
G1 X80.438 Y113.206 E13.3793
G1 X80.093 Y112.869 E13.40176
G1 X77.138 Y109.91 E13.59648
G1 X76.652 Y109.408 E13.62902
G1 X76.206 Y108.89 E13.66085
G1 X75.824 Y108.324 E13.69264
G1 X75.448 Y107.57 E13.73188
G1 X75.329 Y107.281 E13.74643
G1 X75.106 Y106.635 E13.77825
G1 X74.96 Y105.967 E13.81009
G1 X74.894 Y105.287 E13.8419
G1 X74.938 Y104.303 E13.88777
G1 X74.976 Y104.011 E13.90148
G1 X75.103 Y103.34 E13.93328
G1 X75.309 Y102.688 E13.96512
G1 X75.589 Y102.065 E13.99692
G1 X75.939 Y101.479 E14.02871
G1 X76.306 Y100.996 E14.05695
G1 X76.65 Y100.607 E14.08113
G1 X77.504 Y99.718 E14.13853
G1 X80.052 Y97.17 E14.30632
G1 X80.591 Y96.646 E14.34133
G1 X81.158 Y96.161 E14.37607
M204 S3000
M205 X10 Y10
G0 F3000 X81.494 Y96.609
M204 S1800
M205 X8 Y8
G1 F2400 X81.518 Y96.591 E14.37747
G1 X82.201 Y96.157 E14.41515
G1 X82.653 Y95.917 E14.43898
G1 X90.541 Y91.974 E14.84961
G1 X91.12 Y91.695 E14.87954
G1 X91.721 Y91.45 E14.90976
G1 X92.372 Y91.269 E14.94122
G1 X93.01 Y91.149 E14.97145
G1 X93.579 Y91.11 E14.99801
G1 X94.425 Y91.097 E15.03741
G1 X119.053 Y91.097 E16.18419
G1 X121.72 Y91.059 E16.30839
G1 X124.211 Y90.952 E16.42449
G1 X124.462 Y90.945 E16.43618
G1 X125.347 Y90.995 E16.47745
G1 X126.365 Y91.14 E16.52533
G1 X127.396 Y91.311 E16.574
G1 X127.868 Y91.405 E16.59641
G1 X128.494 Y91.577 E16.62664
G1 X129.202 Y91.87 E16.66232
G1 X129.766 Y92.152 E16.69168
G1 X130.324 Y92.485 E16.72194
G1 X130.981 Y93.018 E16.76133
G1 X131.397 Y93.433 E16.78869
G1 X131.67 Y93.734 E16.80761
G1 X132.076 Y94.241 E16.83786
G1 X132.49 Y94.936 E16.87553
G1 X132.75 Y95.488 E16.90394
G1 X132.853 Y95.736 E16.91644
G1 X133.065 Y96.35 E16.94669
G1 X133.187 Y96.893 E16.9726
G1 X133.285 Y97.578 E17.00483
G1 X133.322 Y98.432 E17.04463
G1 X133.305 Y98.858 E17.06448
G1 X133.187 Y100.917 E17.16051
G1 X133.11 Y103.621 E17.28647
G1 X133.108 Y106.294 E17.41094
G1 X133.183 Y108.982 E17.53615
G1 X133.318 Y111.446 E17.65106
G1 X133.306 Y112.197 E17.68603
G1 X133.25 Y112.711 E17.71011
G1 X133.205 Y113.007 E17.72405
G1 X133.068 Y113.642 E17.7543
G1 X132.771 Y114.447 E17.79425
G1 X132.547 Y114.926 E17.81888
G1 X132.437 Y115.146 E17.83033
G1 X132.111 Y115.708 E17.86058
G1 X131.719 Y116.226 E17.89083
G1 X131.339 Y116.629 E17.91662
G1 X130.773 Y117.152 E17.95251
G1 X130.264 Y117.556 E17.98277
G1 X129.456 Y118.018 E18.02611
G1 X128.975 Y118.234 E18.05066
G1 X128.772 Y118.317 E18.06087
G1 X128.003 Y118.565 E18.0985
G1 X127.377 Y118.691 E18.12823
G1 X127.237 Y118.715 E18.13484
G1 X126.049 Y118.899 E18.19082
G1 X125.447 Y118.995 E18.21921
G1 X124.8 Y119.059 E18.24948
G1 X124.401 Y119.058 E18.26806
G1 X123.325 Y119.014 E18.3182
G1 X122.642 Y118.978 E18.35005
G1 X118.838 Y118.903 E18.52722
G1 X94.292 Y118.902 E19.67018
G1 X93.573 Y118.891 E19.70366
G1 X92.926 Y118.842 E19.73388
G1 X92.269 Y118.711 E19.76507
G1 X91.646 Y118.528 E19.79531
G1 X91.154 Y118.32 E19.82018
G1 X90.484 Y117.996 E19.85484
G1 X82.922 Y114.214 E20.24854
G1 X82.32 Y113.902 E20.28011
G1 X81.763 Y113.568 E20.31035
G1 X81.212 Y113.145 E20.3427
G1 X80.829 Y112.806 E20.36651
G1 X80.49 Y112.474 E20.38861
G1 X77.541 Y109.521 E20.58294
G1 X77.055 Y109.019 E20.61547
G1 X76.632 Y108.525 E20.64575
G1 X76.274 Y107.983 E20.676
G1 X75.966 Y107.356 E20.70853
G1 X75.847 Y107.067 E20.72308
G1 X75.637 Y106.453 E20.7533
G1 X75.504 Y105.817 E20.78355
G1 X75.45 Y105.169 E20.81383
G1 X75.493 Y104.376 E20.85081
G1 X75.531 Y104.084 E20.86452
G1 X75.654 Y103.446 E20.89478
G1 X75.855 Y102.828 E20.92504
G1 X76.13 Y102.239 E20.95531
G1 X76.475 Y101.689 E20.98554
G1 X76.832 Y101.242 E21.01218
G1 X77.054 Y100.995 E21.02764
G1 X77.9 Y100.114 E21.08452
G1 X80.443 Y97.571 E21.25198
G1 X80.982 Y97.047 E21.28698
G1 X81.494 Y96.609 E21.31835
M204 S3000
M205 X10 Y10
G0 F3000 X85.8 Y104.666
M204 S1800
M205 X8 Y8
;TYPE:SUPPORT
G1 F1500 X85.8 Y105.333 E21.34941
G1 X85.137 Y104.999 E21.38398
G1 X85.8 Y104.666 E21.41853
M204 S3000
M205 X10 Y10
G0 F3000 X85.88 Y104.088
M204 S1800
M205 X8 Y8
;TYPE:SUPPORT-INTERFACE
G1 F1500 X84.314 Y104.876 E21.50016
G1 X84.314 Y105.122 E21.51161
G1 X85.88 Y105.911 E21.59327
G1 X85.88 Y106.057 E21.60006
G1 X86.15 Y106.493 E21.62394
G1 X93.317 Y110.076 E21.99705
G1 X119.965 Y110.076 E23.23789
G1 X124.5 Y110.066 E23.44906
G1 X124.552 Y110.023 E23.4522
G1 X124.972 Y110.279 E23.47511
G1 X125.567 Y110.242 E23.50287
G1 X125.455 Y110.291 E23.50856
G1 X125.049 Y110.618 E23.53283
G1 X124.871 Y110.854 E23.5466
G1 X124.597 Y111.513 E23.57983
G1 X124.597 Y111.985 E23.60181
G1 X124.871 Y112.645 E23.63508
G1 X125.048 Y112.88 E23.64878
G1 X125.458 Y113.213 E23.67338
G1 X125.562 Y113.258 E23.67865
G1 X124.986 Y113.222 E23.70553
G1 X124.55 Y113.482 E23.72917
G1 X124.492 Y113.435 E23.73264
G1 X122.9 Y113.433 E23.80677
G1 X119.288 Y113.423 E23.97496
G1 X93.681 Y113.423 E25.16733
G1 X93.665 Y113.42 E25.16809
G1 X93.519 Y113.387 E25.17506
G1 X84.842 Y109.048 E25.6268
G1 X84.742 Y108.976 E25.63253
G1 X81.02 Y105.252 E25.8777
G1 X80.942 Y105.16 E25.88332
G1 X80.906 Y104.996 E25.89114
G1 X80.945 Y104.833 E25.89894
G1 X81.044 Y104.719 E25.90597
G1 X84.78 Y100.982 E26.15203
G1 X84.785 Y100.978 E26.15232
G1 X93.5 Y96.621 E26.60602
G1 X93.519 Y96.615 E26.60695
G1 X93.681 Y96.577 E26.61469
G1 X119.293 Y96.577 E27.8073
G1 X124.497 Y96.567 E28.04962
G1 X124.548 Y96.525 E28.05269
G1 X124.973 Y96.783 E28.07584
G1 X125.56 Y96.745 E28.10323
G1 X125.455 Y96.791 E28.10857
G1 X125.049 Y97.118 E28.13285
G1 X124.871 Y97.354 E28.14661
G1 X124.597 Y98.013 E28.17984
G1 X124.597 Y98.485 E28.20182
G1 X124.871 Y99.145 E28.2351
G1 X125.048 Y99.38 E28.2488
G1 X125.458 Y99.713 E28.27339
G1 X125.557 Y99.756 E28.27842
G1 X124.984 Y99.719 E28.30515
G1 X124.548 Y99.98 E28.32882
G1 X124.492 Y99.935 E28.33216
G1 X123.096 Y99.933 E28.39717
G1 X119.96 Y99.923 E28.54319
G1 X93.315 Y99.923 E29.78389
G1 X86.15 Y103.505 E30.1569
G1 X85.88 Y103.941 E30.18078
G1 X85.88 Y104.088 E30.18762
M204 S3000
M205 X10 Y10
G0 F3000 X122.997 Y98.332
M204 S1800
M205 X8 Y8
G1 F1500 X119.962 Y98.323 E30.32894
G1 X93.671 Y98.323 E31.55316
G1 X93.963 Y98.177 E31.56836
G1 X119.295 Y98.177 E32.74793
G1 X122.997 Y98.17 E32.92031
G1 X122.997 Y98.332 E32.92785
M204 S3000
M205 X10 Y10
G0 F3000 X123.557 Y98.693
M204 S1800
M205 X8 Y8
G1 F1500 X123.64 Y98.894 E32.93798
G1 X119.961 Y98.883 E33.10929
G1 X93.07 Y98.883 E34.36145
G1 X85.422 Y102.706 E34.75958
G1 X85.018 Y103.357 E34.79526
G1 X83.274 Y104.236 E34.8862
G1 X83.274 Y105.762 E34.95726
G1 X85.019 Y106.642 E35.04826
G1 X85.422 Y107.292 E35.08387
G1 X93.072 Y111.116 E35.48211
G1 X119.966 Y111.116 E36.73441
G1 X123.639 Y111.108 E36.90544
G1 X123.557 Y111.305 E36.91537
G1 X123.557 Y112.193 E36.95672
G1 X123.641 Y112.394 E36.96687
G1 X119.289 Y112.383 E37.16952
G1 X93.836 Y112.383 E38.35471
G1 X85.403 Y108.167 E38.79373
G1 X82.235 Y104.998 E39.00238
G1 X85.399 Y101.833 E39.21077
G1 X93.831 Y97.617 E39.64974
G1 X119.294 Y97.617 E40.8354
G1 X123.639 Y97.609 E41.03773
G1 X123.557 Y97.805 E41.04762
G1 X123.557 Y98.693 E41.08897
M204 S3000
M205 X10 Y10
G0 F3000 X123.096 Y99.453
M204 S1800
M205 X8 Y8
G1 F1500 X119.96 Y99.443 E41.23499
G1 X93.202 Y99.443 E42.48096
G1 X85.814 Y103.136 E42.86556
G1 X85.411 Y103.786 E42.90117
G1 X83.834 Y104.581 E42.98341
G1 X83.834 Y105.417 E43.02233
G1 X85.412 Y106.213 E43.10463
G1 X85.814 Y106.862 E43.14018
G1 X93.204 Y110.556 E43.52488
G1 X119.965 Y110.556 E44.77099
G1 X124.487 Y110.546 E44.98155
G1 X124.451 Y110.614 E44.98514
G1 X124.117 Y111.417 E45.02563
G1 X124.117 Y112.081 E45.05655
G1 X124.451 Y112.885 E45.09709
G1 X124.497 Y112.955 E45.10099
G1 X122.9 Y112.953 E45.17535
G1 X119.288 Y112.943 E45.34354
G1 X93.733 Y112.943 E46.53349
G1 X93.68 Y112.931 E46.53602
G1 X85.093 Y108.638 E46.98305
G1 X85.052 Y108.608 E46.98542
G1 X81.443 Y104.998 E47.22311
G1 X85.067 Y101.373 E47.46179
G1 X93.665 Y97.074 E47.90941
G1 X93.74 Y97.057 E47.91299
G1 X119.293 Y97.057 E49.10284
G1 X124.483 Y97.047 E49.34451
G1 X124.451 Y97.114 E49.34797
G1 X124.117 Y97.917 E49.38846
G1 X124.117 Y98.581 E49.41938
G1 X124.451 Y99.385 E49.45992
G1 X124.49 Y99.455 E49.46365
G1 X123.096 Y99.453 E49.52856
M204 S3000
M205 X10 Y10
G0 F3000 X122.997 Y111.669
M204 S1800
M205 X8 Y8
G1 F1500 X122.997 Y111.832 E49.53615
G1 X119.29 Y111.823 E49.70877
G1 X93.968 Y111.823 E50.88787
G1 X93.674 Y111.676 E50.90317
G1 X119.967 Y111.676 E52.12748
G1 X122.997 Y111.669 E52.26857
M204 S3000
M205 X10 Y10
G1 F2400 E46.26857
;MESH:kadai1-2.stl
G0 F3000 X125.797 Y111.749
G1 F2400 E52.26857
G0 F3000 X126.398 Y112.231
M204 S1800
M205 X8 Y8
;TYPE:WALL-OUTER
G1 F1500 X126.372 Y112.243 E52.26991
G1 X126.09 Y112.197 E52.28321
G1 X126.077 Y112.195 E52.28382
G1 X125.904 Y112.055 E52.29419
G1 X125.893 Y112.029 E52.2955
G1 X125.777 Y111.749 E52.30961
G1 X125.782 Y111.737 E52.31022
G1 X125.893 Y111.47 E52.32368
G1 X125.904 Y111.444 E52.325
G1 X126.074 Y111.307 E52.33517
G1 X126.374 Y111.258 E52.34932
G1 X126.4 Y111.27 E52.35065
G1 X126.701 Y111.416 E52.36623
G1 X126.8 Y111.75 E52.38245
G1 X126.701 Y112.084 E52.39867
G1 X126.398 Y112.231 E52.41435
M204 S3000
M205 X10 Y10
G0 F3000 X126.372 Y112.243
G0 X126.202 Y112.216
G0 X126.32 Y111.836
G1 F2400 E46.41435
G0 F3000 X126.505 Y110.323
G0 X126.505 Y99.677
G0 X126.37 Y98.724
G1 F2400 E52.41435
G0 F3000 X126.398 Y98.731
M204 S1800
M205 X8 Y8
G1 F1500 X126.372 Y98.743 E52.41569
G1 X126.09 Y98.697 E52.42899
G1 X126.077 Y98.695 E52.42961
G1 X125.904 Y98.555 E52.43997
G1 X125.893 Y98.529 E52.44128
G1 X125.777 Y98.249 E52.4554
G1 X125.782 Y98.237 E52.456
G1 X125.893 Y97.97 E52.46946
G1 X125.904 Y97.944 E52.47078
G1 X126.074 Y97.807 E52.48095
G1 X126.374 Y97.758 E52.4951
G1 X126.4 Y97.77 E52.49643
G1 X126.701 Y97.916 E52.51201
G1 X126.8 Y98.25 E52.52823
G1 X126.701 Y98.584 E52.54445
G1 X126.398 Y98.731 E52.56014
M204 S3000
M205 X10 Y10
G0 F3000 X126.372 Y98.743
G0 X126.202 Y98.716
